apps/common/main/resources/img/toolbar/2.5x/btn-smart-matrix.svg

<svg xmlns="http://www.w3.org/2000/svg" width="20" height="20" fill="none"><path fill="#000" d="M17 17H2V2h15v15ZM3 16h6v-3H6v-3H3v6Zm10-3h-3v3h6v-6h-3v3Zm-6-1h5V7H7v5ZM3 9h3V6h3V3H3v6Zm7-3h3v3h3V3h-6v3Z"/></svg>

<svg width="20" height="20" viewBox="0 0 20 20" fill="none" xmlns="http://www.w3.org/2000/svg">
<path fill-rule="evenodd" clip-rule="evenodd" d="M3 3H9V6H6V9H3V3ZM13 6V9H16V3H10V6H13ZM6 13V10H3V16H9V13H6ZM9 17H3H2V16V10V9V3V2H3H9H10H16H17V3V9V10V16V17H16H10H9ZM16 10H13V13H12V7H7V12H12V13H10V16H16V10Z" fill="black"/>
</svg>
